X:1

T:Roaring Rivie

M:C|

L:1/8

R:Strathspey

B:Stewart-Robertson – The Athole Collection  (1884)

Z:AK/Fiddler’s Companion

K:D

c|A<d A>F D<d A>F|D<d A>F B<EE>B|A<d A>F D<A f>d|g>ba>g f<dd:|

f/g/|a<f d>f A<d f>d|A<d A>F B<E Ef/g/|a<f d>f A<d f>d|g>ba>g f<d df/g/|

a<f d>f A<d f>d|A<d A>F G<E E>F|D>d A>d D<d f>d|g>ba>g f<dd||

                       

ROARING WILLIE'S [1]. AKA and see “Rattling, Roaring Willie.” Irish, Slip Jig. A Mixolydian. Standard tuning. AB. From the Scots song “Rattling Roaring Willie.” Cole (1000 Fiddle Tunes), 1940; pg. 71. Ryan’s Mammoth Collection, 1883; pg. 103. White’s Unique Collection, 1896; No. 18, pg. 4.

